X: 16251
T: the Queen of May
%R: air, minuet, waltz
B: James Oswald "The Caledonian Pocket Companion" v.1 b.6 p.25 #1
S: https://ia800501.us.archive.org/18/items/caledonianpocket01rugg/caledonianpocket01rugg_bw.pdf
Z: 2020 John Chambers <jc:trillian.mit.edu>
M: 3/4
L: 1/8
K: D
%%slurgraces 1
%%graceslurs 1
"_Slow"A2 |\
d3 e (d/e/f) | (f<d) d2 A2 | (Bd) d2 {G}F2 | {F2}E4 F2 |\
(G<B) B2 (B/c/d) | (A<F) F2 {E}D2 | (A<f)(f<d) (A<F) | D4 :: (DE) |\
TF3 D (d<f) |
A4 (Bc) | d2 (a<f) (ed) | Tc4 (dc) |\
B2 (g<e) (cB) | T^A3 F B2 | (cg)(fe)(dc) | B4 (AG) |\
TF3 G (Ad) | {de}f3 edA |
(Bd) d2 (F>G) | {F2}E4 A2 |\
(A<d) d2 {de}f2 | (d<B) B2 (AG) | (eB) e2 (e/f/g) | (e<c) c2 (BA) |\
d3 e(fg) | (a<f) d2 A2 | Bd F2 TE2 | D4 :|
